dist/svg/apple.svg

<svg width="16" height="16" viewBox="0 0 16 16" fill="rgb(34, 34, 34)" xmlns="http://www.w3.org/2000/svg"><title>apple</title><path d="M14 11.7C13.7 12.5 13.3 13.3 12.9 14C12.2 15 11.6 16 10.5 16C9.39998 16 8.99998 15.3 7.79998 15.3C6.59998 15.3 6.19998 16 5.19998 16C4.19998 16 3.39998 14.9 2.69998 14C1.29998 12 0.299984 8.4 1.69998 5.9C2.39998 4.7 3.59998 4 4.99998 4C5.99998 4 6.99998 4.6 7.59998 4.6C8.19998 4.6 9.39998 3.9 10.7 4C11.9 4 12.9 4.6 13.6 5.5C13.5 5.5 11.4 6.5 11.5 8.5C11.4 10.9 14 11.7 14 11.7ZM9.79998 2.6C10.4 1.9 10.7 1 10.6 0C9.79998 0.1 8.89998 0.5 8.29998 1.2C7.69998 1.9 7.39998 2.8 7.49998 3.7C8.39998 3.7 9.29998 3.3 9.79998 2.6Z" fill="rgb(34, 34, 34)" fill-opacity="1.00"/></svg>

<!-- Generated by Trend Micro Style Portal -->
<svg version="1.1" xmlns="http://www.w3.org/2000/svg" width="16" height="16" viewBox="0 0 16 16">
  <title>apple</title>
  <path fill="rgb(34,34,34)" d="M14 11.7c-0.3 0.8-0.7 1.6-1.1 2.3-0.7 1-1.3 2-2.4 2s-1.5-0.7-2.7-0.7-1.6 0.7-2.6 0.7c-1 0-1.8-1.1-2.5-2-1.4-2-2.4-5.6-1-8.1 0.7-1.2 1.9-1.9 3.3-1.9 1 0 2 0.6 2.6 0.6s1.8-0.7 3.1-0.6c1.2 0 2.2 0.6 2.9 1.5-0.1 0-2.2 1-2.1 3v0c-0.1 2.4 2.5 3.2 2.5 3.2zM9.8 2.6c0.6-0.7 0.9-1.6 0.8-2.6-0.8 0.1-1.7 0.5-2.3 1.2s-0.9 1.6-0.8 2.5c0.9 0 1.8-0.4 2.3-1.1v0z"></path>
</svg>
